src/status/24/night-light-disabled-symbolic.svg

<?xml version="1.0" encoding="UTF-8" standalone="no"?>
<svg
   xmlns:dc="http://purl.org/dc/elements/1.1/"
   xmlns:cc="http://creativecommons.org/ns#"
   xmlns:rdf="http://www.w3.org/1999/02/22-rdf-syntax-ns#"
   xmlns:svg="http://www.w3.org/2000/svg"
   xmlns="http://www.w3.org/2000/svg"
   xmlns:sodipodi="http://sodipodi.sourceforge.net/DTD/sodipodi-0.dtd"
   xmlns:inkscape="http://www.inkscape.org/namespaces/inkscape"
   version="1.1"
   width="24"
   height="24"
   id="svg4031"
   sodipodi:docname="night-light-disabled-symbolic.svg"
   inkscape:version="0.92+devel (unknown)">
  <sodipodi:namedview
     pagecolor="#ffffff"
     bordercolor="#ffffff"
     borderopacity="1"
     objecttolerance="10"
     gridtolerance="10"
     guidetolerance="10"
     inkscape:pageopacity="0"
     inkscape:pageshadow="2"
     inkscape:window-width="1600"
     inkscape:window-height="837"
     id="namedview30"
     showgrid="false"
     inkscape:zoom="20.388246"
     inkscape:cx="25.34102"
     inkscape:cy="10.980172"
     inkscape:window-x="0"
     inkscape:window-y="30"
     inkscape:window-maximized="1"
     inkscape:current-layer="svg4031"
     inkscape:document-rotation="0">
    <inkscape:grid
       type="xygrid"
       id="grid852" />
  </sodipodi:namedview>
  <defs
     id="defs4033" />
  <metadata
     id="metadata4036">
    <rdf:RDF>
      <cc:Work
         rdf:about="">
        <dc:format>image/svg+xml</dc:format>
        <dc:type
           rdf:resource="http://purl.org/dc/dcmitype/StillImage" />
        <dc:title />
      </cc:Work>
    </rdf:RDF>
  </metadata>
  <path
     style="color:#000000;font-variation-settings:normal;display:inline;overflow:visible;visibility:visible;opacity:0.4;vector-effect:none;fill:#ffffff;fill-opacity:1;fill-rule:nonzero;stroke:none;stroke-width:1;stroke-linecap:butt;stroke-linejoin:miter;stroke-miterlimit:4;stroke-dasharray:none;stroke-dashoffset:0;stroke-opacity:1;marker:none;enable-background:accumulate"
     d="M 11.25 3 C 11.111929 3 11 3.1119288 11 3.25 L 11 4.75 C 11 4.889 11.112 5 11.25 5 L 11.75 5 C 11.888071 5 12 4.8880712 12 4.75 L 12 3.25 C 12 3.1119288 11.888071 3 11.75 3 L 11.25 3 z M 5.3515625 5.2363281 L 4.4121094 6.1777344 L 17.955078 19.720703 L 18.894531 18.779297 L 15.898438 15.783203 C 16.586239 14.866126 17.000002 13.733321 17 12.5 C 17 9.4652894 14.534708 7 11.5 7 C 10.236363677 7 9.1338545 7.4137272 8.2167969 8.1015625 L 5.3515625 5.2363281 z M 17.861328 5.53125 C 17.852828 5.5314693 17.844368 5.5321243 17.835938 5.5332031 C 17.779708 5.5397831 17.727369 5.5652658 17.6875 5.6054688 L 16.626953 6.3636360156 C 16.528663 6.7643036 16.529373 6.9219506 16.626953 7.0195312 L 16.980469 7.3730469 C 17.078099 7.4706519 17.236357 7.4706519 17.333984 7.3730469 L 18.394531 6.3125 C 18.492141 6.214873 18.492141 6.0566111 18.394531 5.9589844 L 18.041016 5.6054688 C 17.993586 5.5574994 17.928784 5.5307335 17.861328 5.53125 z M 11.400391 8.0625 L 11.402344 8.0625 C 11.430334 8.0622361 11.458338 8.0622361 11.486328 8.0625 L 11.492188 8.0625 C 10.829429 8.5576184 10.371194 9.2583931 10.152344 10.037109 L 8.9667969 8.8515625 C 9.6789282 8.3614811 10.522774 8.080204 11.400391 8.0625 z M 6.7207031 9.7871094 C 6.2644361 10.58838 6 11.513071 6 12.5 C 6 15.534712 8.465286 18 11.5 18 C 12.486929 18 13.411619 17.735564 14.212891 17.279297 L 13.445312 16.511719 C 9.6365885 18.372624 5.6273756 14.363411 7.4882812 10.554688 L 6.7207031 9.7871094 z M 2.25 12 C 2.1119288 12 2 12.111929 2 12.25 L 2 12.75 C 2 12.889 2.112 13 2.25 13 L 3.75 13 C 3.8880712 13 4 12.888071 4 12.75 L 4 12.25 C 4 12.111929 3.8880712 12 3.75 12 L 2.25 12 z M 19.25 12 C 19.111929 12 19 12.111929 19 12.25 L 19 12.75 C 19 12.889 19.112 13 19.25 13 L 20.75 13 C 20.888071 13 21 12.888071 21 12.75 L 21 12.25 C 21 12.111929 20.888071 12 20.75 12 L 19.25 12 z M 15.599609 14.222656 C 15.479295 14.510284 15.330774 14.784085 15.154297 15.039062 L 14.716797 14.601562 C 15.024943 14.51402 15.321822 14.387858 15.599609 14.222656 z M 5.8398438 17.552734 C 5.7744207 17.553734 5.7120133 17.580413 5.3636360156 17.626953 L 4.6054688 18.6875 C 4.5071807 18.78579 4.5078878 18.943435 4.6054688 19.041016 L 4.9589844 19.394531 C 5.0566114 19.492141 5.2148733 19.492141 5.3125 19.394531 L 6.3730469 18.333984 C 6.4706519 18.236354 6.4706519 18.078096 6.3730469 17.980469 L 6.0195312 17.626953 C 5.9721022 17.578983 5.9072999 17.552214 5.8398438 17.552734 z M 11.25 20 C 11.111929 20 11 20.111929 11 20.25 L 11 21.75 C 11 21.889 11.112 22 11.25 22 L 11.75 22 C 11.888071 22 12 21.888071 12 21.75 L 12 20.25 C 12 20.111929 11.888071 20 11.75 20 L 11.25 20 z "
     id="path28" />
</svg>

<?xml version="1.0" encoding="UTF-8"?>
<svg id="svg4031" width="24" height="24" version="1.1" xmlns="http://www.w3.org/2000/svg" xmlns:cc="http://creativecommons.org/ns#" xmlns:dc="http://purl.org/dc/elements/1.1/" xmlns:rdf="http://www.w3.org/1999/02/22-rdf-syntax-ns#">
 <metadata id="metadata4036">
  <rdf:RDF>
   <cc:Work rdf:about="">
    <dc:format>image/svg+xml</dc:format>
    <dc:type rdf:resource="http://purl.org/dc/dcmitype/StillImage"/>
    <dc:title/>
   </cc:Work>
  </rdf:RDF>
 </metadata>
 <path id="path28" d="m11.25 3c-0.13807 0-0.25 0.11193-0.25 0.25v1.5c0 0.139 0.112 0.25 0.25 0.25h0.5c0.13807 0 0.25-0.11193 0.25-0.25v-1.5c0-0.13807-0.11193-0.25-0.25-0.25h-0.5zm-5.8984 2.2363-0.93945 0.94141 13.543 13.543 0.93945-0.94141-2.9961-2.9961c0.6878-0.91708 1.1016-2.0499 1.1016-3.2832 0-3.0347-2.4653-5.5-5.5-5.5-1.2636 0-2.3661 0.41373-3.2832 1.1016l-2.8652-2.8652zm12.51 0.29492c-0.0085 2.193e-4 -0.01696 8.743e-4 -0.02539 0.0019531-0.05623 0.00658-0.10857 0.032063-0.14844 0.072266l-1.0605 0.75817c-0.09829 0.40067-0.09758 0.55831 0 0.6559l0.35352 0.35352c0.09763 0.097605 0.25589 0.097605 0.35352 0l1.0605-1.0605c0.09761-0.097627 0.09761-0.25589 0-0.35352l-0.35352-0.35352c-0.04743-0.047969-0.11223-0.074735-0.17969-0.074219zm-6.4609 2.5312h0.001953c0.02799-2.639e-4 0.055994-2.639e-4 0.083984 0h0.00586c-0.66276 0.49512-1.121 1.1959-1.3398 1.9746l-1.1855-1.1855c0.71213-0.49008 1.556-0.77136 2.4336-0.78906zm-4.6797 1.7246c-0.45627 0.80127-0.7207 1.726-0.7207 2.7129 0 3.0347 2.4653 5.5 5.5 5.5 0.98693 0 1.9116-0.26444 2.7129-0.7207l-0.76758-0.76758c-3.8087 1.8609-7.8179-2.1483-5.957-5.957l-0.76758-0.76758zm-4.4707 2.2129c-0.13807 0-0.25 0.11193-0.25 0.25v0.5c0 0.139 0.112 0.25 0.25 0.25h1.5c0.13807 0 0.25-0.11193 0.25-0.25v-0.5c0-0.13807-0.11193-0.25-0.25-0.25h-1.5zm17 0c-0.13807 0-0.25 0.11193-0.25 0.25v0.5c0 0.139 0.112 0.25 0.25 0.25h1.5c0.13807 0 0.25-0.11193 0.25-0.25v-0.5c0-0.13807-0.11193-0.25-0.25-0.25h-1.5zm-3.6504 2.2227c-0.12031 0.28763-0.26884 0.56143-0.44531 0.81641l-0.4375-0.4375c0.30815-0.087542 0.60502-0.2137 0.88281-0.37891zm-9.7598 3.3301c-0.065423 1e-3 -0.12783 0.027679-0.47621 0.074219l-0.75817 1.0605c-0.098288 0.09829-0.097581 0.25594 0 0.35352l0.35352 0.35352c0.097627 0.09761 0.25589 0.09761 0.35352 0l1.0605-1.0605c0.097605-0.09763 0.097605-0.25589 0-0.35352l-0.35352-0.35352c-0.047429-0.04797-0.11223-0.074739-0.17969-0.074219zm5.4102 2.4473c-0.13807 0-0.25 0.11193-0.25 0.25v1.5c0 0.139 0.112 0.25 0.25 0.25h0.5c0.13807 0 0.25-0.11193 0.25-0.25v-1.5c0-0.13807-0.11193-0.25-0.25-0.25h-0.5z" color="#000000" fill="#fff" opacity=".4" style="font-variation-settings:normal"/>
</svg>
